X:0138
T:A Lovely Lass to a Friar Came.
M:2/4
L:1/8
Q:1/4=104
I: :: ::
Z:Jack Campin * www.campin.me.uk * 2009
K:G
(A/B/)|cBAG   |(A/G/A/B/) G(A/B/)|cBAG| A2        G     :|
 G    |Gddd   | e>ddd            |edcB|(A/G/A/B/) A(B/c/)|
       d>B G>B|(A/G/A/B/) (GA/B/)|cBAG| A2G             :|
<end>
<start>
